; HEADER_BLOCK_START
; generated by OrcaSlicer 1.9.0 on 2024-05-06 at 22:20:43
; total layer number: 240
; filament_density: 1.24
; filament_diameter: 1.75
; max_z_height: 48.00
; HEADER_BLOCK_END

; THUMBNAIL_BLOCK_START

;
; THUMBNAIL_BLOCK_END

; external perimeters extrusion width = 0.40mm
; perimeters extrusion width = 0.45mm
; infill extrusion width = 0.45mm
; solid infill extrusion width = 0.40mm
; top infill extrusion width = 0.40mm
; first layer extrusion width = 0.50mm

; EXECUTABLE_BLOCK_START
M73 P0 R95
M201 X500 Y500 Z500 E5000
M203 X500 Y500 Z10 E60
M204 P500 R1000 T500
M205 X8.00 Y8.00 Z0.40 E5.00 ; sets the jerk limits, mm/sec
;TYPE:Custom
G90 ; use absolute coordinates
M83 ; extruder relative mode
M140 S60 ; set final bed temp
M104 S150 ; set temporary nozzle temp to prevent oozing during homing
G4 S10 ; allow partial nozzle warmup
G28 ; home all axis
G1 Z50 F240
G1 X2 Y10 F3000
M104 S220 ; set final nozzle temp
M190 S60 ; wait for bed temp to stabilize
M109 S220 ; wait for nozzle temp to stabilize
G1 Z0.28 F240
G92 E0
G1 Y140 E10 F1500 ; prime the nozzle
M73 P0 R94
G1 X2.3 F5000
G92 E0
G1 Y10 E10 F1200 ; prime the nozzle
G92 E0
G90
G21
M83 ; use relative distances for extrusion
; filament start gcode
M106 S0
;LAYER_CHANGE
;Z:0.2
;HEIGHT:0.2
;BEFORE_LAYER_CHANGE
;0.2
G92 E0

G1 E-5 F3600
;_SET_FAN_SPEED_CHANGING_LAYER
M204 S500
G1 Z.4 F9000
G1 X72.025 Y89.857
G1 Z.4
G1 Z.2
G1 E5 F2400
;TYPE:Skirt
;WIDTH:0.5
G1 F3000
G1 X72.766 Y89.388 E.03267
G1 X73.5 Y89.048 E.03015
G1 X74.371 Y88.779 E.03392
G1 X75.2 Y88.64 E.03134
G1 X98.877 Y87.194 E.88351
G1 X100.314 Y87.16 E.05351
G1 X102.654 Y87.331 E.0874
G1 X105.184 Y87.842 E.09615
G1 X107.635 Y88.682 E.09651
G1 X110.011 Y89.873 E.09899
G1 X112.157 Y91.334 E.09667
G1 X114.051 Y93.028 E.09465
G1 X115.76 Y95.017 E.09769
G1 X117.188 Y97.229 E.09803
G1 X117.72 Y98.714 E.05876
G1 X117.861 Y99.963 E.04682
G1 X117.683 Y101.447 E.05566
G1 X117.346 Y102.438 E.03899
G1 X116.422 Y104.044 E.06901
G1 X115.003 Y105.931 E.08794
G1 X113.526 Y107.487 E.07992
G1 X111.661 Y109.041 E.09041
G1 X110.137 Y110.052 E.06811
G1 X108.804 Y110.782 E.05659
G1 X107.239 Y111.479 E.06384
G1 X106.073 Y111.895 E.04611
G1 X104.608 Y112.305 E.05665
G1 X102.83 Y112.644 E.0674
G1 X101.111 Y112.813 E.06435
G1 X99.822 Y112.84 E.04802
G1 X74.942 Y111.328 E.92839
G1 X73.875 Y111.084 E.04076
G1 X72.643 Y110.544 E.05012
G1 X71.611 Y109.813 E.0471
G1 X70.703 Y108.839 E.0496
G1 X70.184 Y108.033 E.0357
G1 X69.81 Y107.213 E.03358
G1 X69.556 Y106.363 E.03305
G1 X69.41 Y105.417 E.03566
G1 X69.409 Y94.595 E.40306
G1 X69.675 Y93.187 E.05337
G1 X70.207 Y91.926 E.05099
G1 X70.967 Y90.833 E.04959
G1 X71.995 Y89.884 E.0521
G1 X72.298 Y90.223 F9000
G1 F3000
G1 X72.986 Y89.788 E.03032
G1 X73.667 Y89.473 E.02794
G1 X74.47 Y89.226 E.03129
G1 X75.371 Y89.083 E.03398
G1 X100.311 Y87.617 E.93053
G1 X102.587 Y87.784 E.08499
G1 X105.06 Y88.282 E.09394
G1 X107.456 Y89.102 E.09433
G1 X109.774 Y90.264 E.0966
G1 X111.872 Y91.692 E.09453
G1 X113.727 Y93.351 E.09267
G1 X115.392 Y95.288 E.09514
G1 X116.782 Y97.44 E.09544
G1 X117.272 Y98.806 E.05405
G1 X117.403 Y99.963 E.04337
G1 X117.24 Y101.332 E.05135
G1 X116.807 Y102.51 E.04675
G1 X115.723 Y104.257 E.07658
G1 X114.378 Y105.953 E.08064
G1 X112.867 Y107.473 E.07981
G1 X111.079 Y108.897 E.08514
G1 X109.785 Y109.73 E.0573
G1 X108.493 Y110.427 E.0547
G1 X107.066 Y111.056 E.05809
G1 X105.817 Y111.497 E.04931
G1 X104.507 Y111.859 E.05063
G1 X102.76 Y112.192 E.06626
G1 X101.08 Y112.357 E.06285
G1 X99.822 Y112.383 E.04688
G1 X75.01 Y110.877 E.92585
G1 X74.011 Y110.648 E.03818
G1 X72.866 Y110.145 E.04658
G1 X71.914 Y109.472 E.04342
G1 X71.065 Y108.561 E.04635
G1 X70.588 Y107.819 E.03287
G1 X70.24 Y107.057 E.03122
G1 X70.002 Y106.266 E.03076
G1 X69.865 Y105.374 E.0336
G1 X69.864 Y94.638 E.3999
G1 X70.114 Y93.316 E.05011
G1 X70.609 Y92.142 E.04746
G1 X71.316 Y91.128 E.04603
G1 X72.269 Y90.25 E.04826
G1 X72.574 Y90.617 F9000
G1 F3000
G1 X72.789 Y90.438 E.01041
G1 X74.068 Y89.816 E.053
G1 X75.414 Y89.538 E.0512
G1 X100.309 Y88.074 E.92884
G1 X102.521 Y88.236 E.08259
G1 X104.935 Y88.722 E.09173
G1 X107.276 Y89.522 E.09215
G1 X109.538 Y90.655 E.0942
G1 X111.588 Y92.05 E.09238
G1 X113.403 Y93.673 E.0907
G1 X115.023 Y95.558 E.09258
G1 X116.377 Y97.651 E.09284
G1 X116.825 Y98.898 E.04934
G1 X116.946 Y100.037 E.04266
G1 X116.798 Y101.217 E.04431
G1 X116.354 Y102.394 E.04685
G1 X115.138 Y104.287 E.08378
G1 X113.849 Y105.857 E.07568
G1 X112.276 Y107.384 E.08164
G1 X110.742 Y108.575 E.07235
G1 X109.558 Y109.333 E.05235
G1 X108.295 Y110.015 E.05346
G1 X106.893 Y110.633 E.05706
G1 X105.684 Y111.06 E.04774
G1 X104.406 Y111.413 E.04939
G1 X102.689 Y111.741 E.06511
G1 X101.05 Y111.901 E.06134
G1 X99.822 Y111.925 E.04575
G1 X75.078 Y110.425 E.92331
G1 X73.893 Y110.123 E.04557
G1 X72.892 Y109.628 E.04158
G1 X71.963 Y108.895 E.04407
G1 X71.261 Y108.047 E.04101
G1 X70.627 Y106.785 E.0526
G1 X70.32 Y105.332 E.0553
G1 X70.319 Y94.68 E.39675
G1 X70.552 Y93.444 E.04684
G1 X71.012 Y92.358 E.04393
G1 X71.865 Y91.205 E.05344
G1 X72.543 Y90.642 E.0328
G1 X72.833 Y90.991 F9000
G1 F3000
G1 X73.037 Y90.822 E.00986
G1 X74.207 Y90.251 E.04851
G1 X75.458 Y89.993 E.04756
G1 X100.307 Y88.532 E.92715
G1 X102.454 Y88.688 E.08018
G1 X104.811 Y89.162 E.08952
G1 X107.096 Y89.943 E.08997
G1 X109.301 Y91.046 E.0918
G1 X111.304 Y92.408 E.09023
G1 X113.08 Y93.996 E.08872
G1 X114.655 Y95.829 E.09003
G1 X115.972 Y97.863 E.09025
G1 X116.377 Y98.991 E.04463
G1 X116.489 Y100.037 E.0392
G1 X116.355 Y101.103 E.04001
G1 X115.946 Y102.187 E.04316
G1 X114.767 Y104.02 E.08117
G1 X113.509 Y105.551 E.0738
G1 X111.974 Y107.041 E.07968
G1 X110.278 Y108.338 E.07954
G1 X108.982 Y109.137 E.0567
G1 X107.808 Y109.742 E.04919
G1 X106.614 Y110.251 E.04835
G1 X105.168 Y110.739 E.05683
G1 X102.514 Y111.304 E.10107
G1 X101.02 Y111.445 E.05591
G1 X99.73 Y111.467 E.04803
G1 X75.146 Y109.973 E.91735
G1 X74.058 Y109.697 E.04181
G1 X73.138 Y109.243 E.03821
G1 X72.286 Y108.572 E.0404
G1 X71.644 Y107.797 E.03749
G1 X71.057 Y106.629 E.0487
G1 X70.775 Y105.29 E.05096
G1 X70.774 Y94.723 E.39359
G1 X70.991 Y93.573 E.04357
G1 X71.415 Y92.575 E.0404
G1 X72.19 Y91.526 E.04857
G1 X72.802 Y91.017 E.02966
G1 X73.093 Y91.366 F9000
G1 F3000
G1 X73.285 Y91.206 E.00928
G1 X74.346 Y90.687 E.04403
G1 X75.501 Y90.448 E.04391
G1 X100.305 Y88.989 E.92546
G1 X102.388 Y89.14 E.07777
G1 X104.686 Y89.601 E.08731
G1 X106.917 Y90.363 E.08779
G1 X109.064 Y91.437 E.0894
G1 X111.019 Y92.766 E.08808
G1 X112.756 Y94.318 E.08675
G1 X114.286 Y96.1 E.08748
G1 X115.567 Y98.074 E.08765
G1 X115.929 Y99.083 E.03992
G1 X116.032 Y100.037 E.03575
G1 X115.879 Y101.119 E.04069
G1 X115.441 Y102.157 E.04197
G1 X114.357 Y103.806 E.07349
G1 X113.119 Y105.3 E.07228
G1 X111.622 Y106.741 E.07738
G1 X109.968 Y107.996 E.07734
G1 X108.755 Y108.74 E.05301
G1 X107.61 Y109.33 E.04796
G1 X106.455 Y109.822 E.04675
G1 X105.035 Y110.302 E.05583
G1 X102.458 Y110.85 E.09815
G1 X99.822 Y111.011 E.09834
G1 X75.215 Y109.521 E.91822
G1 X74.224 Y109.271 E.03805
G1 X73.384 Y108.858 E.03484
G1 X72.61 Y108.248 E.03673
G1 X72.027 Y107.547 E.03396
G1 X71.658 Y106.896 E.0279
G1 X71.429 Y106.298 E.02382
G1 X71.219 Y105.079 E.04607
G1 X71.229 Y94.765 E.38416
G1 X71.429 Y93.702 E.04031
G1 X71.817 Y92.791 E.03688
G1 X72.515 Y91.848 E.0437
G1 X73.062 Y91.391 E.02654
G1 X73.345 Y91.751 F9000
G1 F3000
G1 X73.626 Y91.53 E.01328
G1 X74.486 Y91.122 E.03545
G1 X75.544 Y90.903 E.04027
G1 X100.303 Y89.446 E.92377
G1 X102.321 Y89.593 E.07537
G1 X104.562 Y90.041 E.0851
G1 X106.737 Y90.783 E.08561
G1 X108.827 Y91.827 E.087
G1 X110.735 Y93.124 E.08593
G1 X112.432 Y94.641 E.08478
G1 X113.918 Y96.37 E.08492
G1 X115.161 Y98.286 E.08506
G1 X115.511 Y99.32 E.04067
G1 X115.563 Y100.3 E.03655
G1 X115.346 Y101.288 E.03765
G1 X114.784 Y102.364 E.04523
G1 X113.571 Y104.078 E.07821
G1 X112.384 Y105.408 E.06637
G1 X110.994 Y106.67 E.06996
G1 X109.346 Y107.856 E.07559
G1 X107.348 Y108.947 E.08482
G1 X106.297 Y109.393 E.04252
G1 X104.833 Y109.884 E.05751
G1 X102.401 Y110.397 E.09256
G1 X100.959 Y110.532 E.05396
G1 X99.756 Y110.553 E.04483
G1 X75.283 Y109.069 E.91319
G1 X74.39 Y108.845 E.03429
G1 X73.545 Y108.418 E.03525
G1 X72.86 Y107.852 E.03309
G1 X72.317 Y107.156 E.03291
G1 X71.868 Y106.17 E.04035
G1 X71.676 Y105.064 E.04181
G1 X71.684 Y94.808 E.38199
G1 X71.868 Y93.83 E.03704
G1 X72.31 Y92.853 E.03996
G1 X72.932 Y92.076 E.03705
G1 X73.314 Y91.775 E.01812
; printing object 3DBenchy.stl id:2343250667752 copy 0
G1 E-3.8 F3600
;WIPE_START
G1 F3000
G1 X73.626 Y91.53 E-.47597
G1 X74.171 Y91.271 E-.72403
;WIPE_END
G1 Z.6 F9000
G1 X79.312 Y98.998 Z.6
G1 Z.2
G1 E5 F2400
;TYPE:Inner wall
;WIDTH:0.499999
G1 F900
G1 X79.48 Y98.927 E.00678
G1 X79.807 Y98.619 E.01674
G1 X79.962 Y98.316 E.01267
G1 X80.02 Y98.383 E.0033
G1 X80.382 Y98.658 E.01694
G1 X80.706 Y98.74 E.01242
G1 X81.603 Y98.688 E.03348
G1 X81.575 Y99.155 E.0174
G1 X81.591 Y101.94 E.10375
G1 X81.559 Y102.636 E.02596
G1 X81.702 Y103.078 E.0173
G1 X81.912 Y103.325 E.01205
G1 X82.313 Y103.547 E.01707
G1 X82.661 Y103.616 E.01323
G1 X83.018 Y103.581 E.01334
G1 X83.382 Y103.434 E.01465
G1 X83.672 Y103.168 E.01465
G1 X83.818 Y102.903 E.01126
G1 X83.949 Y102.334 E.02174
G1 X83.934 Y101.519 E.03038
G1 X83.933 Y98.704 E.10486
G1 X84.466 Y98.712 E.01985
G1 X85.057 Y98.619 E.02229
G1 X85.352 Y98.489 E.01202
G1 X85.648 Y98.202 E.01537
G1 X85.849 Y98.538 E.01459
G1 X86.16 Y98.79 E.01491
G1 X86.474 Y98.906 E.01248
G1 X86.256 Y99.278 E.01606
G1 X86.181 Y99.835 E.02094
G1 X86.265 Y100.189 E.01356
G1 X86.441 Y100.461 E.01204
G1 X86.668 Y100.641 E.01081
;WIDTH:0.47253
G1 X86.799 Y100.672 E.00471
;WIDTH:0.433668
G1 X86.93 Y100.703 E.00428
;WIDTH:0.409179
G1 X87.59 Y100.886 E.02045
G1 X87.874 Y101.097 E.01057
;WIDTH:0.397224
G1 X87.948 Y101.216 E.00404
G1 X87.949 Y101.36 E.00415
G1 X87.838 Y101.495 E.00506
;WIDTH:0.416004
G1 X87.48 Y101.245 E.01328
G1 X87.205 Y101.126 E.0091
;WIDTH:0.43318
G1 X86.9 Y101.064 E.0099
;WIDTH:0.47253
G1 X86.595 Y101.002 E.01089
;WIDTH:0.499999
G1 X86.428 Y101.018 E.00628
G1 X86.143 Y101.106 E.0111
G1 X85.855 Y101.322 E.01339
G1 X85.577 Y101.747 E.01893
G1 X85.498 Y102.263 E.01943
G1 X85.615 Y102.722 E.01766
G1 X85.853 Y103.102 E.01669
G1 X86.261 Y103.423 E.01932
G1 X86.484 Y103.537 E.00932
G1 X87.192 Y103.729 E.02734
G1 X87.816 Y103.761 E.02325
G1 X88.277 Y103.723 E.01723
G1 X88.762 Y103.6 E.01865
G1 X89.25 Y103.359 E.02027
G1 X89.639 Y103.049 E.01853
G1 X89.944 Y102.68 E.01785
G1 X90.221 Y102.185 E.0211
;WIDTH:0.533854
G1 X90.401 Y101.657 E.02233
G1 X90.406 Y101.693 E.00147
;WIDTH:0.530504
G1 X90.416 Y102.382 E.02734
;WIDTH:0.499999
G1 X90.547 Y102.982 E.02289
G1 X90.9 Y103.419 E.02092
G1 X91.218 Y103.568 E.01309
G1 X91.545 Y103.623 E.01234
G1 X92.14 Y103.584 E.0222
G1 X92.881 Y103.59 E.02762
G1 X93.461 Y103.556 E.02162
G1 X94.083 Y103.447 E.02353
G1 X94.626 Y103.242 E.02163
G1 X95.158 Y102.889 E.02377
G1 X95.287 Y103.2 E.01257
G1 X95.563 Y103.574 E.01731
G1 X96.075 Y103.914 E.02289
G1 X96.33 Y104.008 E.01012
G1 X96.749 Y104.07 E.01577
G1 X97.278 Y103.987 E.01994
G1 X97.497 Y103.903 E.00873
G1 X97.922 Y103.614 E.01915
G1 X98.14 Y103.351 E.01272
G1 X98.312 Y103.527 E.00917
G1 X98.686 Y103.731 E.01586
G1 X99.031 Y103.784 E.013
G1 X99.283 Y103.762 E.00944
G1 X99.703 Y103.553 E.01747
G1 X100.094 Y103.087 E.02265
G1 X100.333 Y103.387 E.01428
G1 X100.595 Y103.622 E.0131
M73 P1 R94
G1 X100.952 Y103.773 E.01443
G1 X101.266 Y103.794 E.0117
;WIDTH:0.549142
G1 X101.791 Y103.7 E.02202
;WIDTH:0.587848
G1 X101.944 Y103.598 E.00819
;WIDTH:0.626554
G1 X102.097 Y103.495 E.00877
;WIDTH:0.66526
G1 X102.25 Y103.392 E.00935
;WIDTH:0.670303
G1 X102.384 Y103.153 E.014
;WIDTH:0.714393
G1 X102.503 Y102.731 E.02402
G1 X102.461 Y102.49 E.01338
;WIDTH:0.677033
G1 X102.419 Y102.249 E.01264
;WIDTH:0.655688
G1 X102.221 Y101.773 E.02573
G1 X102.074 Y101.566 E.01266
;WIDTH:0.616766
G1 X101.927 Y101.36 E.01185
;WIDTH:0.577844
G1 X101.781 Y101.153 E.01105
;WIDTH:0.538922
G1 X101.634 Y100.946 E.01024
;WIDTH:0.499999
G1 X101.525 Y100.765 E.00787
G1 X101.553 Y100.591 E.00659
G1 X102.129 Y99.616 E.04216
G1 X102.493 Y100.534 E.03678
;WIDTH:0.538922
G1 X102.563 Y100.778 E.01024
;WIDTH:0.577844
G1 X102.632 Y101.021 E.01105
;WIDTH:0.616766
G1 X102.702 Y101.265 E.01185
;WIDTH:0.655688
G1 X102.819 Y101.626 E.01897
;WIDTH:0.649996
G1 X103.017 Y102.154 E.02787
;WIDTH:0.686672
G1 X103.11 Y102.411 E.01435
;WIDTH:0.723347
G1 X103.202 Y102.669 E.01517
G1 X103.164 Y102.846 E.01007
G1 X103.073 Y103.098 E.01487
;WIDTH:0.696253
G1 X102.981 Y103.35 E.01428
;WIDTH:0.674269
G1 X102.792 Y103.726 E.02164
G1 X102.66 Y103.843 E.00908
;WIDTH:0.66526
G1 X102.503 Y103.912 E.00871
;WIDTH:0.628401
G1 X102.346 Y103.982 E.00819
;WIDTH:0.591542
G1 X102.189 Y104.051 E.00768
;WIDTH:0.554683
G1 X101.863 Y104.31 E.01735
;WIDTH:0.514677
G1 X101.672 Y104.582 E.01277
;WIDTH:0.499999
G1 X101.583 Y104.926 E.01322
G1 X101.618 Y105.321 E.01476
G1 X101.742 Y105.652 E.01316
G1 X101.997 Y106 E.0161
G1 X102.216 Y106.161 E.0101
;WIDTH:0.548964
G1 X102.454 Y106.24 E.01034
;WIDTH:0.597929
G1 X102.692 Y106.319 E.01134
;WIDTH:0.646894
G1 X102.93 Y106.398 E.01234
G1 X103.288 Y106.34 E.01785
;WIDTH:0.65721
G1 X103.854 Y106.156 E.02979
G1 X103.942 Y106.074 E.00602
;WIDTH:0.610381
G1 X104.031 Y105.993 E.00556
;WIDTH:0.563551
G1 X104.235 Y105.82 E.01136
;WIDTH:0.531775
G1 X104.44 Y105.647 E.01067
;WIDTH:0.499999
G1 X104.756 Y105.216 E.01989
G1 X104.958 Y104.825 E.01641
G1 X105.625 Y103.118 E.06826
G1 X105.839 Y102.519 E.02369
;WIDTH:0.54017
G1 X106.13 Y101.764 E.03277
;WIDTH:0.577044
G1 X106.325 Y101.27 E.02314
G1 X106.386 Y101.042 E.01027
;WIDTH:0.538522
G1 X106.447 Y100.814 E.00953
;WIDTH:0.499999
G1 X106.614 Y100.306 E.0199
G1 X106.834 Y99.776 E.02139
G1 X107.1 Y99.981 E.01249
G1 X107.348 Y100.086 E.01004
G1 X107.816 Y100.153 E.01762
G1 X107.41 Y100.713 E.0258
;WIDTH:0.538522
G1 X107.112 Y101.098 E.01965
;WIDTH:0.577044
G1 X106.814 Y101.483 E.02118
G1 X106.513 Y102.17 E.03265
;WIDTH:0.542794
G1 X106.506 Y102.651 E.01959
;WIDTH:0.499999
G1 X106.617 Y103.113 E.01772
G1 X106.778 Y103.384 E.01172
G1 X107.018 Y103.617 E.01247
G1 X107.241 Y103.722 E.00919
G1 X107.694 Y103.808 E.01715
G1 X108.242 Y103.781 E.02045
G1 X109.499 Y103.785 E.04682
G1 X109.018 Y104.199 E.02365
G1 X108.471 Y104.622 E.02575
G1 X107.979 Y104.97 E.02244
G1 X107.289 Y105.406 E.03039
G1 X106.75 Y105.71 E.02308
G1 X106.049 Y106.062 E.02921
G1 X105.189 Y106.429 E.03483
G1 X104.624 Y106.629 E.02231
;WIDTH:0.539302
G1 X104.492 Y106.65 E.00541
;WIDTH:0.578605
G1 X104.36 Y106.671 E.00583
;WIDTH:0.617908
G1 X104.228 Y106.693 E.00626
;WIDTH:0.65721
G1 X104.096 Y106.714 E.00669
G1 X103.84 Y106.796 E.01349
;WIDTH:0.646894
G1 X103.024 Y106.994 E.0413
G1 X102.84 Y107.057 E.00956
;WIDTH:0.597929
G1 X102.657 Y107.121 E.00879
;WIDTH:0.548964
G1 X102.473 Y107.184 E.00801
;WIDTH:0.499999
G1 X101.636 Y107.303 E.03147
G1 X100.761 Y107.374 E.03271
G1 X99.831 Y107.39 E.03465
G1 X99.183 Y107.365 E.02413
G1 X75.853 Y105.947 E.87059
G1 X75.45 Y105.849 E.01544
G1 X75.113 Y105.623 E.01512
G1 X74.929 Y105.298 E.01388
G1 X74.835 Y104.834 E.01764
G1 X74.836 Y102.172 E.09916
G1 X75.258 Y102.767 E.02718
G1 X75.808 Y103.242 E.02707
G1 X76.461 Y103.571 E.02723
G1 X77.207 Y103.742 E.02851
G1 X77.874 Y103.749 E.02484
G1 X78.527 Y103.638 E.02467
G1 X78.946 Y103.482 E.01663
G1 X79.43 Y103.165 E.02156
G1 X79.749 Y102.812 E.01772
G1 X79.997 Y102.343 E.01978
G1 X80.074 Y102.066 E.01071
G1 X80.032 Y101.719 E.01302
G1 X79.901 Y101.421 E.01213
G1 X79.593 Y101.093 E.01674
G1 X79.181 Y100.901 E.01695
G1 X78.966 Y100.843 E.00829
G1 X78.533 Y100.863 E.01613
G1 X78.088 Y101.062 E.01817
G1 X77.84 Y101.306 E.01294
G1 X77.541 Y101.333 E.01121
G1 X77.326 Y101.296 E.00811
G1 X77.074 Y101.167 E.01054
G1 X76.901 Y100.862 E.01307
G1 X76.799 Y100.459 E.0155
G1 X76.77 Y99.931 E.0197
G1 X76.813 Y99.423 E.01897
G1 X76.921 Y98.996 E.01639
G1 X77.099 Y98.744 E.0115
G1 X77.356 Y98.609 E.01081
G1 X77.63 Y98.607 E.0102
G1 X78.362 Y98.999 E.03094
G1 X78.855 Y99.1 E.01874
G1 X79.131 Y99.074 E.01032
G1 X79.276 Y99.013 E.00584
G1 E-3.5 F3600
;WIPE_START
G1 F900
