;FLAVOR:Marlin
;TIME:2790
;Filament used: 1.29941m
;Layer height: 0.2
;MINX:71.817
;MINY:71.55
;MINZ:0.2
;MAXX:128.183
;MAXY:128.439
;MAXZ:5.8
;TARGET_MACHINE.NAME:Creality CR-10S Pro
;Generated with Cura_SteamEngine 5.7.1
M140 S50
M105
M190 S50
M104 S200
M105
M109 S200
M82 ;absolute extrusion mode
M201 X500.00 Y500.00 Z100.00 E5000.00 ;Setup machine max acceleration
M203 X500.00 Y500.00 Z10.00 E50.00 ;Setup machine max feedrate
M204 P500.00 R1000.00 T500.00 ;Setup Print/Retract/Travel acceleration
M205 X8.00 Y8.00 Z0.40 E5.00 ;Setup Jerk
M220 S100 ;Reset Feedrate
M221 S100 ;Reset Flowrate

G28 ;Home
G29 ;Auto bed Level
M420 S1 ;Save and use mesh

G92 E0 ;Reset Extruder
G1 Z2.0 F3000 ;Move Z Axis up
G1 X10.1 Y20 Z0.28 F5000.0 ;Move to start position
G1 X10.1 Y200.0 Z0.28 F1500.0 E15 ;Draw the first line
G1 X10.4 Y200.0 Z0.28 F5000.0 ;Move to side a little
G1 X10.4 Y20 Z0.28 F1500.0 E30 ;Draw the second line
G92 E0 ;Reset Extruder
G1 Z2.0 F3000 ;Move Z Axis up

G92 E0
G92 E0
G1 F2700 E-5
;LAYER_COUNT:29
;LAYER:0
M107
G0 F6000 X75.289 Y74.551 Z0.2
;TYPE:SKIRT
G1 F2700 E0
G1 F1200 X76.026 Y73.917 E0.03233
G1 X76.817 Y73.348 E0.06474
G1 X77.656 Y72.851 E0.09718
G1 X78.47 Y72.46 E0.12721
G1 X79.447 Y72.092 E0.16194
G1 X80.351 Y71.842 E0.19313
G1 X81.355 Y71.659 E0.22708
G1 X82.586 Y71.562 E0.26815
G1 X83.25 Y71.55 E0.29023
G1 X102.629 Y71.585 E0.93478
G1 X104.007 Y71.603 E0.98062
G1 X107.129 Y71.591 E1.08446
G1 X109.323 Y71.55 E1.15744
G1 X116.632 Y71.556 E1.40054
G1 X117.35 Y71.567 E1.42443
G1 X118.338 Y71.627 E1.45735
G1 X119.302 Y71.773 E1.48978
G1 X120.249 Y72.004 E1.5222
G1 X121.105 Y72.292 E1.55224
G1 X122.061 Y72.711 E1.58695
G1 X122.914 Y73.182 E1.61936
G1 X123.721 Y73.727 E1.65175
G1 X124.476 Y74.34 E1.6841
G1 X125.177 Y75.018 E1.71653
G1 X125.813 Y75.756 E1.74893
G1 X126.38 Y76.546 E1.78128
G1 X126.877 Y77.384 E1.81368
G1 X127.283 Y78.231 E1.84492
G1 X127.637 Y79.175 E1.87846
G1 X127.896 Y80.115 E1.91089
G1 X128.073 Y81.082 E1.94358
G1 X128.169 Y82.246 E1.98243
G1 X128.183 Y82.896 E2.00405
G1 X128.182 Y116.291 E3.11477
G1 X128.17 Y117.052 E3.14009
G1 X128.112 Y118.025 E3.17251
G1 X127.966 Y118.988 E3.2049
G1 X127.735 Y119.935 E3.23732
G1 X127.422 Y120.857 E3.26971
G1 X127.03 Y121.748 E3.30209
G1 X126.578 Y122.57 E3.33329
G1 X126.016 Y123.408 E3.36685
G1 X125.426 Y124.138 E3.39806
G1 X124.723 Y124.864 E3.43168
G1 X123.987 Y125.5 E3.46403
G1 X123.197 Y126.07 E3.49643
G1 X122.421 Y126.533 E3.52649
G1 X121.481 Y126.986 E3.56119
G1 X120.568 Y127.328 E3.59362
G1 X119.63 Y127.587 E3.62598
G1 X118.675 Y127.762 E3.65828
G1 X117.811 Y127.847 E3.68715
G1 X114.733 Y128.063 E3.78978
G1 X112.6 Y128.273 E3.86106
G1 X111.629 Y128.378 E3.89355
G1 X110.651 Y128.439 E3.92614
G1 X109.522 Y128.402 E3.96371
G1 X106.396 Y128.132 E4.06807
G1 X103.97 Y127.998 E4.14888
G1 X100.294 Y127.917 E4.27118
G1 X83.304 Y127.875 E4.83627
G1 X82.616 Y127.862 E4.85915
G1 X81.646 Y127.799 E4.89148
G1 X80.681 Y127.651 E4.92396
G1 X79.737 Y127.418 E4.9563
G1 X78.815 Y127.103 E4.9887
G1 X77.988 Y126.738 E5.01877
G1 X77.075 Y126.234 E5.05345
G1 X76.268 Y125.688 E5.08586
G1 X75.54 Y125.095 E5.11709
G1 X74.816 Y124.39 E5.1507
G1 X74.182 Y123.653 E5.18304
G1 X73.654 Y122.92 E5.21308
G1 X73.122 Y122.021 E5.24783
G1 X72.703 Y121.141 E5.28024
G1 X72.376 Y120.261 E5.31147
G1 X72.109 Y119.289 E5.34499
G1 X71.94 Y118.359 E5.37643
G1 X71.84 Y117.087 E5.41887
G1 X71.817 Y115.832 E5.46062
G1 X71.82 Y83.06 E6.55062
G1 X71.832 Y82.358 E6.57397
G1 X71.892 Y81.385 E6.6064
G1 X72.039 Y80.424 E6.63873
G1 X72.27 Y79.476 E6.67118
G1 X72.572 Y78.587 E6.70241
G1 X72.979 Y77.665 E6.73593
G1 X73.45 Y76.813 E6.76831
G1 X73.995 Y76.006 E6.8007
G1 X74.586 Y75.276 E6.83194
G1 X75.289 Y74.551 E6.86553
G0 F6000 X75.55 Y74.854
G1 F1200 X76.26 Y74.241 E6.89673
G1 X77.021 Y73.692 E6.92794
G1 X77.829 Y73.212 E6.95919
G1 X78.643 Y72.821 E6.98923
G1 X79.554 Y72.478 E7.02161
G1 X80.458 Y72.228 E7.0528
G1 X81.387 Y72.058 E7.08421
G1 X82.593 Y71.962 E7.12445
G1 X83.249 Y71.95 E7.14627
G1 X102.624 Y71.985 E7.79069
G1 X104.004 Y72.003 E7.83659
G1 X107.136 Y71.991 E7.94077
G1 X109.323 Y71.95 E8.01352
G1 X116.626 Y71.956 E8.25642
G1 X117.326 Y71.966 E8.2797
G1 X118.279 Y72.023 E8.31145
G1 X119.208 Y72.162 E8.3427
G1 X120.121 Y72.383 E8.37394
G1 X120.977 Y72.671 E8.40398
G1 X121.868 Y73.061 E8.43633
G1 X122.691 Y73.514 E8.46757
G1 X123.469 Y74.038 E8.49877
G1 X124.198 Y74.628 E8.52997
G1 X124.874 Y75.28 E8.5612
G1 X125.488 Y75.99 E8.59242
G1 X126.036 Y76.751 E8.62361
G1 X126.516 Y77.557 E8.65482
G1 X126.922 Y78.404 E8.68606
G1 X127.252 Y79.282 E8.71725
G1 X127.503 Y80.187 E8.74849
G1 X127.674 Y81.115 E8.77987
G1 X127.77 Y82.279 E8.81872
G1 X127.783 Y82.896 E8.83925
G1 X127.782 Y116.285 E9.94977
G1 X127.771 Y117.029 E9.97452
G1 X127.716 Y117.966 E10.00574
G1 X127.577 Y118.894 E10.03695
G1 X127.356 Y119.807 E10.06819
G1 X127.056 Y120.696 E10.0994
G1 X126.679 Y121.555 E10.1306
G1 X126.227 Y122.377 E10.1618
G1 X125.704 Y123.157 E10.19303
G1 X125.138 Y123.86 E10.22305
G1 X124.461 Y124.562 E10.25549
G1 X123.753 Y125.176 E10.28666
G1 X122.992 Y125.726 E10.31789
G1 X122.216 Y126.189 E10.34794
G1 X121.34 Y126.612 E10.3803
G1 X120.461 Y126.943 E10.41154
G1 X119.557 Y127.194 E10.44274
G1 X118.636 Y127.364 E10.47389
G1 X117.783 Y127.448 E10.5024
G1 X114.702 Y127.664 E10.60513
G1 X112.557 Y127.875 E10.67681
G1 X111.604 Y127.979 E10.7087
G1 X110.664 Y128.039 E10.74003
G1 X109.556 Y128.003 E10.7769
G1 X106.43 Y127.734 E10.88125
G1 X103.979 Y127.598 E10.9629
G1 X100.303 Y127.517 E11.08519
G1 X83.311 Y127.475 E11.65035
G1 X82.641 Y127.463 E11.67264
G1 X81.706 Y127.404 E11.7038
G1 X80.777 Y127.263 E11.73505
G1 X79.866 Y127.039 E11.76625
G1 X78.977 Y126.737 E11.79748
G1 X78.15 Y126.372 E11.82755
G1 X77.299 Y125.902 E11.85988
G1 X76.52 Y125.377 E11.89113
G1 X75.819 Y124.808 E11.92116
G1 X75.119 Y124.129 E11.95359
G1 X74.507 Y123.419 E11.98477
G1 X73.979 Y122.686 E12.01481
G1 X73.483 Y121.848 E12.0472
G1 X73.078 Y121.001 E12.07843
G1 X72.762 Y120.155 E12.10847
G1 X72.503 Y119.217 E12.14083
G1 X72.334 Y118.287 E12.17227
G1 X72.24 Y117.08 E12.21254
G1 X72.217 Y115.832 E12.25405
G1 X72.22 Y83.066 E13.34385
G1 X72.231 Y82.382 E13.36661
G1 X72.288 Y81.445 E13.39783
G1 X72.428 Y80.518 E13.42901
G1 X72.649 Y79.605 E13.46025
G1 X72.951 Y78.716 E13.49148
G1 X73.329 Y77.858 E13.52267
G1 X73.782 Y77.036 E13.55388
G1 X74.306 Y76.258 E13.58508
G1 X74.897 Y75.528 E13.61632
G1 X75.55 Y74.854 E13.64753
G0 F6000 X75.812 Y75.156
G1 F1200 X76.494 Y74.565 E13.67755
G1 X77.226 Y74.036 E13.70759
G1 X78.002 Y73.573 E13.73764
G1 X78.816 Y73.182 E13.76768
G1 X79.661 Y72.863 E13.79772
G1 X80.531 Y72.621 E13.82775
G1 X81.419 Y72.457 E13.85779
G1 X82.6 Y72.362 E13.89719
G1 X83.248 Y72.35 E13.91875
G1 X102.619 Y72.385 E14.56303
G1 X104.001 Y72.403 E14.609
G1 X107.144 Y72.391 E14.71354
G1 X109.323 Y72.35 E14.78603
G1 X116.62 Y72.356 E15.02873
G1 X117.32 Y72.366 E15.05201
G1 X118.221 Y72.419 E15.08203
G1 X119.115 Y72.551 E15.11209
G1 X119.993 Y72.762 E15.14212
G1 X120.849 Y73.05 E15.17216
G1 X121.676 Y73.412 E15.20219
G1 X122.468 Y73.846 E15.23222
G1 X123.218 Y74.349 E15.26226
G1 X123.921 Y74.916 E15.2923
G1 X124.572 Y75.542 E15.32234
G1 X125.164 Y76.224 E15.35237
G1 X125.693 Y76.956 E15.38241
G1 X126.156 Y77.731 E15.41244
G1 X126.548 Y78.545 E15.44249
G1 X126.867 Y79.39 E15.47253
G1 X127.11 Y80.26 E15.50257
G1 X127.275 Y81.148 E15.53261
G1 X127.37 Y82.288 E15.57066
G1 X127.383 Y82.896 E15.59089
G1 X127.382 Y116.279 E16.70121
G1 X127.372 Y117.006 E16.72539
G1 X127.32 Y117.908 E16.75544
G1 X127.188 Y118.801 E16.78547
G1 X126.977 Y119.68 E16.81554
G1 X126.69 Y120.536 E16.84556
G1 X126.328 Y121.363 E16.87559
G1 X125.894 Y122.155 E16.90563
G1 X125.392 Y122.906 E16.93567
G1 X124.826 Y123.609 E16.96569
G1 X124.199 Y124.26 E16.99575
G1 X123.518 Y124.852 E17.02576
G1 X122.787 Y125.382 E17.0558
G1 X122.011 Y125.845 E17.08585
G1 X121.198 Y126.238 E17.11588
G1 X120.353 Y126.558 E17.14594
G1 X119.484 Y126.801 E17.17595
G1 X118.596 Y126.966 E17.20599
G1 X117.76 Y127.049 E17.23393
G1 X117.258 Y127.078 E17.25066
G1 X114.673 Y127.265 E17.33686
G1 X112.513 Y127.477 E17.40905
G1 X111.578 Y127.58 E17.44033
G1 X110.677 Y127.639 E17.47036
G1 X109.59 Y127.604 E17.50654
G1 X106.464 Y127.336 E17.61089
G1 X103.988 Y127.198 E17.69337
G1 X100.312 Y127.117 E17.81566
G1 X83.318 Y127.075 E18.38089
G1 X82.666 Y127.064 E18.40258
G1 X81.765 Y127.008 E18.4326
G1 X80.872 Y126.874 E18.46263
G1 X79.994 Y126.66 E18.49269
G1 X79.139 Y126.371 E18.52271
G1 X78.312 Y126.006 E18.55278
G1 X77.522 Y125.57 E18.58279
G1 X76.772 Y125.066 E18.61284
G1 X76.071 Y124.497 E18.64287
G1 X75.422 Y123.868 E18.67293
G1 X74.832 Y123.185 E18.70295
G1 X74.304 Y122.452 E18.733
G1 X73.844 Y121.675 E18.76303
G1 X73.453 Y120.861 E18.79306
G1 X73.137 Y120.015 E18.8231
G1 X72.896 Y119.145 E18.85313
G1 X72.733 Y118.256 E18.88319
G1 X72.64 Y117.073 E18.92266
G1 X72.617 Y115.832 E18.96394
G1 X72.62 Y83.072 E20.05354
G1 X72.63 Y82.406 E20.07569
G1 X72.684 Y81.504 E20.10575
G1 X72.817 Y80.611 E20.13578
G1 X73.028 Y79.733 E20.16581
G1 X73.317 Y78.877 E20.19586
G1 X73.68 Y78.05 E20.2259
G1 X74.114 Y77.259 E20.25591
G1 X74.617 Y76.509 E20.28594
G1 X75.185 Y75.806 E20.316
G1 X75.812 Y75.156 E20.34604
G1 F2700 E15.34604
;MESH:ImageToStl.com_photo_5893242317991691457_w.stl
G0 F6000 X82.164 Y117.525
G0 X102.632 Y117.584
G0 X103.054 Y117.082
G0 X102.999 Y115.931
G0 X83.833 Y115.931
G0 X85.223 Y85.925
G0 X99.886 Y105.06
;TYPE:WALL-INNER
G1 F2700 E20.34604
G1 F1200 X101.796 Y103.986 E20.41892
G1 X101.824 Y103.578 E20.43253
G1 X101.84 Y103.1 E20.44843
G1 X101.859 Y99.997 E20.55164
G1 X101.836 Y95.42 E20.70387
G1 X101.818 Y94.978 E20.71859
G1 X86.488 Y86.252 E21.30528
G1 X86.484 Y104.913 E21.92595
G1 X86.494 Y105.551 E21.94717
G1 X97.912 Y99.047 E22.38422
G1 X98.993 Y98.446 E22.42536
G1 X99.308 Y98.419 E22.43588
G1 X99.512 Y98.492 E22.44308
G1 X99.711 Y98.678 E22.45214
G1 X99.811 Y98.976 E22.4626
G1 X99.844 Y99.53 E22.48106
G1 X99.857 Y100.056 E22.49856
G1 X99.886 Y105.06 E22.66499
G0 F6000 X99.494 Y105.738
;TYPE:WALL-OUTER
G1 F1200 X102.18 Y104.23 E22.76745
G1 X102.224 Y103.613 E22.78802
G1 X102.24 Y103.103 E22.80499
G1 X102.259 Y100 E22.9082
G1 X102.236 Y95.405 E23.06103
G1 X102.217 Y94.929 E23.07688
G1 X102.166 Y94.76 E23.08275
G1 X101.945 Y94.591 E23.092
G1 X86.088 Y85.564 E23.69888
G1 X86.084 Y104.919 E24.34263
G1 X86.1 Y105.919 E24.37589
G1 X86.114 Y106.227 E24.38615
G1 X98.106 Y99.397 E24.84516
G1 X99.152 Y98.821 E24.88487
G1 X99.312 Y98.838 E24.89023
G1 X99.408 Y98.926 E24.89456
G1 X99.444 Y99.539 E24.91498
G1 X99.457 Y100.058 E24.93225
G1 X99.494 Y105.738 E25.12117
G0 F6000 X99.738 Y105.319
G0 X100.368 Y104.674
G0 X100.239 Y104.443
;TYPE:SKIN
G1 F1200 X100.217 Y100.051 E25.26725
G1 X100.204 Y99.511 E25.28522
G1 X100.168 Y98.958 E25.30365
G1 X100.015 Y98.478 E25.3204
G1 X99.693 Y98.176 E25.33509
G1 X99.368 Y98.066 E25.3465
G1 X98.87 Y98.099 E25.3631
G1 X97.65 Y98.777 E25.40952
G1 X86.848 Y104.931 E25.82301
G1 X86.848 Y86.869 E26.42376
G1 X101.475 Y95.202 E26.98366
G1 X101.495 Y99.995 E27.14308
G1 X101.48 Y103.079 E27.24565
G1 X101.448 Y103.766 E27.26853
G1 X100.239 Y104.443 E27.31462
G0 F6000 X100.368 Y104.674
G0 X101.637 Y103.885
G0 X101.737 Y95.615
G0 X101.273 Y95.616
G1 F1200 X100.575 Y94.918 E27.34745
G0 F6000 X100.803 Y94.519
G0 X101.658 Y95.08
G0 X101.74 Y96.184
G0 X101.276 Y96.185
G1 F1200 X99.261 Y94.17 E27.44223
G0 F6000 X99.489 Y93.771
G0 X98.175 Y93.022
G0 X97.946 Y93.421
G1 F1200 X101.279 Y96.753 E27.59898
G0 F6000 X101.282 Y97.322
G1 F1200 X96.633 Y92.673 E27.81765
G0 F6000 X96.861 Y92.275
G0 X95.547 Y91.526
G0 X95.318 Y91.924
G1 F1200 X101.285 Y97.89 E28.0983
G0 F6000 X101.287 Y98.459
G1 F1200 X94.003 Y91.175 E28.44092
G0 F6000 X94.231 Y90.777
G0 X92.918 Y90.029
G0 X92.69 Y90.427
G1 F1200 X101.29 Y99.027 E28.84543
G0 F6000 X101.294 Y99.597
G1 F1200 X100.251 Y98.554 E28.89449
G0 F6000 X100.389 Y99.257
G1 F1200 X101.294 Y100.163 E28.93708
G0 F6000 X101.292 Y100.727
G1 F1200 X100.413 Y99.847 E28.97845
G0 F6000 X100.419 Y100.419
G1 F1200 X101.29 Y101.29 E29.01942
G0 F6000 X101.287 Y101.852
G1 F1200 X100.422 Y100.988 E29.06009
G0 F6000 X100.425 Y101.556
G1 F1200 X101.284 Y102.415 E29.10049
G0 F6000 X101.281 Y102.978
G1 F1200 X100.428 Y102.125 E29.14061
G0 F6000 X100.43 Y102.693
G1 F1200 X101.261 Y103.524 E29.1797
G0 F6000 X100.973 Y103.802
G1 F1200 X100.433 Y103.262 E29.2051
G0 F6000 X100.437 Y103.831
G1 F1200 X100.611 Y104.005 E29.21329
G0 F6000 X100.838 Y104.41
G0 X100.064 Y104.753
G0 X99.623 Y98.674
G0 X99.383 Y98.343
G0 X99.647 Y97.95
G1 F1200 X91.375 Y89.678 E29.60238
G0 F6000 X91.602 Y89.28
G0 X90.289 Y88.533
G0 X90.061 Y88.929
G1 F1200 X99.019 Y97.888 E30.02376
G0 F6000 X98.59 Y98.025
G1 F1200 X88.747 Y88.181 E30.48676
G0 F6000 X88.974 Y87.784
G0 X87.659 Y87.035
G0 X87.432 Y87.432
G1 F1200 X98.227 Y98.227 E30.99453
G0 F6000 X97.864 Y98.429
G1 F1200 X87.048 Y87.613 E31.50328
G0 F6000 X87.048 Y88.179
G1 F1200 X97.501 Y98.632 E31.99496
G0 F6000 X97.14 Y98.837
G1 F1200 X87.048 Y88.745 E32.46965
G0 F6000 X87.048 Y89.31
G1 F1200 X96.78 Y99.042 E32.92742
G0 F6000 X96.42 Y99.248
G1 F1200 X87.048 Y89.876 E33.36825
G0 F6000 X87.048 Y90.442
G1 F1200 X96.059 Y99.453 E33.7921
G0 F6000 X95.698 Y99.658
G1 F1200 X87.048 Y91.007 E34.19899
G0 F6000 X87.048 Y91.573
G1 F1200 X95.339 Y99.864 E34.58897
G0 F6000 X94.978 Y100.069
G1 F1200 X87.048 Y92.139 E34.96198
G0 F6000 X87.048 Y92.705
G1 F1200 X94.617 Y100.274 E35.318
G0 F6000 X94.257 Y100.48
G1 F1200 X87.048 Y93.27 E35.65711
G0 F6000 X87.048 Y93.836
G1 F1200 X93.897 Y100.685 E35.97927
G0 F6000 X93.536 Y100.89
G1 F1200 X87.048 Y94.402 E36.28444
G0 F6000 X87.048 Y94.967
G1 F1200 X93.176 Y101.096 E36.57271
G0 F6000 X92.816 Y101.301
G1 F1200 X87.048 Y95.533 E36.84402
G0 F6000 X87.048 Y96.099
G1 F1200 X92.455 Y101.506 E37.09835
G0 F6000 X92.094 Y101.711
G1 F1200 X87.048 Y96.664 E37.33572
G0 F6000 X87.048 Y97.23
G1 F1200 X91.734 Y101.917 E37.55616
G0 F6000 X91.374 Y102.122
G1 F1200 X87.048 Y97.796 E37.75964
G0 F6000 X87.048 Y98.361
G1 F1200 X91.013 Y102.327 E37.94616
G0 F6000 X90.653 Y102.533
G1 F1200 X87.048 Y98.927 E38.11575
G0 F6000 X87.048 Y99.493
G1 F1200 X90.293 Y102.738 E38.26839
G0 F6000 X89.932 Y102.943
G1 F1200 X87.048 Y100.058 E38.40407
G0 F6000 X87.048 Y100.624
G1 F1200 X89.572 Y103.148 E38.52279
G0 F6000 X89.211 Y103.354
G1 F1200 X87.048 Y101.19 E38.62455
G0 F6000 X87.048 Y101.755
G1 F1200 X88.851 Y103.559 E38.70938
G0 F6000 X88.491 Y103.764
G1 F1200 X87.048 Y102.321 E38.77726
G0 F6000 X87.048 Y102.887
G1 F1200 X88.13 Y103.969 E38.82815
G0 F6000 X87.77 Y104.175
G1 F1200 X87.048 Y103.453 E38.86211
G0 F6000 X87.048 Y104.018
G1 F1200 X87.41 Y104.38 E38.87914
G1 F2700 E33.87914
G0 F6000 X87.639 Y104.783
G0 X86.321 Y105.858
G0 X85.238 Y105.91
G0 X85.224 Y113.015
G0 X85.28 Y114.114
G0 X87.227 Y114.87
G0 X99.072 Y115.919
G0 X99.072 Y116.748
;TYPE:WALL-OUTER
G1 F2700 E38.87914
G1 F1445.8 X102.209 Y116.752 E38.96574
G1 F2700 E33.96574
G0 F6000 X104.715 Y115.923
G1 F2700 E38.96574
G1 F866.4 X104.74 Y115.644 E38.97864
G1 F910.8 X104.749 Y114.864 E39.01283
G1 F952.4 X104.734 Y112.011 E39.13239
G1 F1023.5 X104.718 Y111.232 E39.16278
G1 F1000 X104.673 Y111.026 E39.17119
G1 F950.5 X104.305 Y110.804 E39.18924
G1 F1002.1 X104.271 Y110.69 E39.19398
G1 F1030 X104.254 Y109.158 E39.25334
G1 F1002.1 X104.251 Y102.686 E39.51112
G1 F985.6 X104.248 Y96.214 E39.77319
G1 F971.7 X104.245 Y89.742 E40.03904
G1 F956.2 X104.242 Y83.27 E40.30919
G1 F855.6 X104.187 Y83.036 E40.3204
G1 F752.4 X104.025 Y82.941 E40.33037
G1 F718.6 X103.423 Y82.933 E40.36381
G1 F941.2 X103.023 Y83.1 E40.38219
G1 F1379.3 X93.101 Y83.096 E40.66929
G1 F1344.5 X83.179 Y83.091 E40.96383
G1 F1322.3 X82.998 Y83.272 E40.97155
G1 X82.997 Y82.729 E40.98794
G1 F1344.5 X93.01 Y82.742 E41.28517
G1 F1379.3 X103.023 Y82.756 E41.57491
G1 F941.2 X103.423 Y82.933 E41.59346
G1 F2700 E36.59346
G0 F6000 X103.051 Y81.921
G0 X82.166 Y81.895
G0 X82.164 Y117.525
G0 X102.632 Y117.584
G0 X103.054 Y117.082
G0 X102.999 Y115.931
G0 X83.833 Y115.931
G0 X83.833 Y83.928
G0 X82.998 Y83.272
G1 F2700 E41.59346
